X:324
T:Chinese Dance. EHo.324
M:6/8
L:1/8
Q:3/8=100
B:Edward Holmes MS, c1846, Beverley, Yorkshire.
N:NB1 = crochet in ms
O:East Yorkshire.
Z:Village Music Project 2018, Jake Wade. Beverley, East Yorks
K:D
(A | d)z (f^e)z (f | d)z (f^e)z (f | d)z f agf | gab "NB1"ez (e |
A)z (e^d)z (e | A)z (e^d)z  e | Az e gfe | fga d2 :|
d | f3-fzd | dBB B2z | e3-edB | cAA A2z |
f3-fed | dBB Bcd | e3-edB | cAA A(dc/B/ |
A2) B/(c/d2)e | dza e2(c/B/ | A2)(c/d/ e2)f | eda (d2c/B/) |
A2(B/c/d2)e | dca e2c/B/ | A2c/d/e2f | edad2 |]



